icons/strapi-filled.svg

<svg width="256" height="256" viewBox="0 0 256 256" fill="none" xmlns="http://www.w3.org/2000/svg">
<rect width="256" height="256" rx="60" fill="#4945FF" />
<path fill-rule="evenodd" clip-rule="evenodd" d="M192.942 58H89V111H142V164H195V60.0583C195 59.5124 194.783 58.9888 194.397 58.6028C194.011 58.2168 193.488 58 192.942 58Z" fill="white"/>
<path d="M89.3679 110.816H140.133C140.677 110.816 141.199 111.032 141.583 111.417C141.968 111.801 142.184 112.323 142.184 112.867V163.632H91.419C90.875 163.632 90.3533 163.416 89.9687 163.031C89.584 162.647 89.3679 162.125 89.3679 161.581V110.816ZM142.184 163.632H195L143.935 214.698C143.288 215.344 142.184 214.886 142.184 213.973V163.632ZM89.3679 110.816H39.0276C38.1138 110.816 37.6564 109.712 38.3025 109.065L89.3679 58V110.816Z" fill="#9593FF"/>
</svg>

<svg xmlns="http://www.w3.org/2000/svg" width="256" height="256" fill="none"><rect width="256" height="256" fill="#4945FF" rx="60"/><path fill="#fff" fill-rule="evenodd" d="M192.942 58H89v53h53v53h53V60.058A2.06 2.06 0 0 0 192.942 58" clip-rule="evenodd"/><path fill="#9593FF" d="M89.368 110.816h50.765a2.05 2.05 0 0 1 2.051 2.051v50.765H91.419a2.05 2.05 0 0 1-2.051-2.051zm52.816 52.816H195l-51.065 51.066c-.647.646-1.751.188-1.751-.725zm-52.816-52.816h-50.34c-.914 0-1.372-1.104-.725-1.751L89.368 58z"/></svg>
